X: 23507
T: Liam O'Connors Fancy
R: slip jig
M: 9/8
K: Dmajor
B|A2F FEF DFA|BAF dAF EdB|A2F FEF DFA|Bcd edc d2:|
A|d2f fef afe|dfe dcd ecA|d2f fef def|gec ABc d2A|
d2f fef afe|dfe dcd efg|fed edB AFA|Bcd edc d2||

